icons/linkedin-filled.svg

<svg width="256" height="256" viewBox="0 0 256 256" fill="none" xmlns="http://www.w3.org/2000/svg">
<rect width="256" height="256" rx="60" fill="#0A66C2"/>
<path d="M184.715 217.685H213.985C216.194 217.685 217.985 215.895 217.985 213.686L218 151.844C218 119.521 211.035 94.6755 173.262 94.6755C158.903 94.1423 145.362 101.544 138.055 113.904C137.997 114.002 137.893 114.062 137.779 114.062C137.603 114.062 137.46 113.919 137.46 113.743V101.66C137.46 99.4511 135.67 97.6602 133.46 97.6602H105.683C103.474 97.6602 101.683 99.4511 101.683 101.66V213.68C101.683 215.89 103.474 217.68 105.683 217.68H134.951C137.16 217.68 138.951 215.89 138.951 213.68V158.307C138.951 142.65 141.921 127.487 161.332 127.487C180.467 127.487 180.715 145.403 180.715 159.321V213.685C180.715 215.894 182.506 217.685 184.715 217.685Z" fill="white"/>
<path d="M38 59.6275C38 71.4921 47.7675 81.2539 59.6321 81.2539C71.4944 81.2528 81.2551 71.4853 81.2551 59.623C81.2528 47.7607 71.491 38 59.6275 38C47.763 38 38 47.763 38 59.6275Z" fill="white"/>
<path d="M44.9588 217.685H74.2659C76.4751 217.685 78.2659 215.894 78.2659 213.685V101.66C78.2659 99.4511 76.4751 97.6602 74.2659 97.6602H44.9588C42.7497 97.6602 40.9588 99.4511 40.9588 101.66V213.685C40.9588 215.894 42.7497 217.685 44.9588 217.685Z" fill="white"/>
</svg>

<svg xmlns="http://www.w3.org/2000/svg" width="256" height="256" fill="none"><rect width="256" height="256" fill="#0A66C2" rx="60"/><path fill="#fff" d="M184.715 217.685h29.27a4 4 0 0 0 4-3.999l.015-61.842c0-32.323-6.965-57.168-44.738-57.168-14.359-.534-27.9 6.868-35.207 19.228a.32.32 0 0 1-.595-.161V101.66a4 4 0 0 0-4-4h-27.777a4 4 0 0 0-4 4v112.02a4 4 0 0 0 4 4h29.268a4 4 0 0 0 4-4v-55.373c0-15.657 2.97-30.82 22.381-30.82 19.135 0 19.383 17.916 19.383 31.834v54.364a4 4 0 0 0 4 4M38 59.628c0 11.864 9.767 21.626 21.632 21.626 11.862-.001 21.623-9.769 21.623-21.631C81.253 47.761 71.491 38 59.628 38 47.762 38 38 47.763 38 59.627m6.959 158.058h29.307a4 4 0 0 0 4-4V101.66a4 4 0 0 0-4-4H44.959a4 4 0 0 0-4 4v112.025a4 4 0 0 0 4 4"/></svg>
